X:1
T:Title
%%score ( 1 2 ) { 3 | 4 }
L:1/8
Q:1/4=107
M:4/4
K:G
V:1 treble nm="Grand Piano, Soprano"
V:2 treble 
V:3 bass nm="Choir Pad, Bass"
V:4 bass 
V:1
 [DG]2 [DA]2 [DB]2 [DG]2 | [Dc]2 [DB]2 B2 A2 | [^DB]2 [FA]2 [FA]2 [EG]2 | G2 A2 [^DB]4 | %4
w: By~Viggo~Kalhauge~(1840\-1905) * * *||||
 [B,G]2 [DA]2 [DB]2 [=FG]2 | [Ec]2 [EB]2 B2 A2 | [DB]2 [EB]2 c2 A2 | G2 F2 [DG]4 | %8
w: ||||
 [B,G]2 [^CG]2 [DF]2 [B,F]2 | [G,E]2 [A,E]2 [B,D]4 | [DG]2 [B,A]2 A2 c2 | [DB]2 [CA]2 [B,G]4- | %12
w: ||||
 [B,G]4 z4 |] %13
w: |
V:2
 x8 | z4 D4 | x8 | E4 z4 | x8 | z4 D4 | z4 E4 | D4 z4 | x8 | x8 | z4 E4 | x8 | x8 |] %13
V:3
 B,2 F,2 G,2 G,2 | F,2 G,2 G,2 F,2 | F,2 B,2 B,4 | E,4 F,4 | G,2 F,2 G,2 D2 | G,2 G,2 G,2 F,2 | %6
 G,2 G,2 A,4 | A,2 C2 B,4 | G,2 G,2 B,2 D,2 | E,2 F,2 G,4 | G,2 G,2 G,4 | F,4 G,4- | G,4 z4 |] %13
V:4
 G,2 D,2 G,,2 B,,2 | A,,2 G,,2 D,4 | B,,2 ^D,2 E,4 | C,4 B,,4 | E,2 D,2 G,,2 B,,2 | C,2 ^C,2 D,4 | %6
 z2 E,2 A,,2 C,2 | D,4 G,,4 | E,2 E,2 B,,4 | C,4 G,,4 | B,,2 E,2 C,2 A,,2 | D,4 [G,,D,]4- | %12
 [G,,D,]4 z4 |] %13

